public/exclusive.svg

<?xml version="1.0" encoding="UTF-8"?>
<svg width="25px" height="24px" viewBox="0 0 25 24" version="1.1" xmlns="http://www.w3.org/2000/svg" xmlns:xlink="http://www.w3.org/1999/xlink">
    <!-- Generator: sketchtool 58 (101010) - https://sketch.com -->
    <title>03ECAB0D-B173-4E59-9D1C-80F45AA3139E</title>
    <desc>Created with sketchtool.</desc>
    <defs>
        <linearGradient x1="50%" y1="17.3814678%" x2="50%" y2="151.163387%" id="linearGradient-1">
            <stop stop-color="#C768E0" offset="0%"></stop>
            <stop stop-color="#67006E" offset="100%"></stop>
        </linearGradient>
    </defs>
    <g id="Home" stroke="none" stroke-width="1" fill="none" fill-rule="evenodd">
        <g id="1.A.op1.-Home" transform="translate(-53.000000, -271.000000)">
            <g id="exclusive" transform="translate(52.000000, 269.000000)">
                <g id="baseline-subscriptions-24px" transform="translate(0.500000, 0.000000)">
                    <path d="M22.6,11.5783133 C23.92,11.5783133 25,12.6599398 25,13.9819277 L25,23.5963855 C25,24.9183735 23.92,26 22.6,26 L3.4,26 C2.08,26 1,24.9183735 1,23.5963855 L1,13.9819277 C1,12.6599398 2.08,11.5783133 3.4,11.5783133 L22.6,11.5783133 Z M17.7180051,21.8641975 L7.88401933,21.8641975 C7.67405866,21.8641975 7.50383946,22.0438436 7.50383946,22.2654321 L7.50383946,23.2283951 C7.50383946,23.4499835 7.67405866,23.6296296 7.88401933,23.6296296 L17.7180051,23.6296296 C17.9279658,23.6296296 18.098185,23.4499835 18.098185,23.2283951 L18.098185,22.2654321 C18.098185,22.0438436 17.9279658,21.8641975 17.7180051,21.8641975 Z M12.7798742,14 C12.3396259,14 11.9814965,14.377963 11.9814965,14.8425926 C11.9814965,15.0748807 12.0710162,15.2855556 12.2155859,15.4380247 L12.2155859,15.4380247 L10.4946384,17.8445761 C10.2279042,18.2176173 9.80433316,18.4402757 9.36008032,18.4402757 C8.98436123,18.4402757 8.61710748,18.2789259 8.35245161,17.9974733 L8.35245161,17.9974733 L7.30528419,16.8839671 C7.48315768,16.7293045 7.59675542,16.4951975 7.59675542,16.2335391 C7.59675542,15.7689095 7.23862599,15.3909465 6.79837771,15.3909465 C6.35812943,15.3909465 6,15.7689095 6,16.2335391 C6,16.6101111 6.23535668,16.9296543 6.55891509,17.0372387 C6.55648194,17.0776296 6.55926992,17.118823 6.56890115,17.1596955 L6.56890115,17.1596955 L7.40529684,20.7039342 C7.44747146,20.8827243 7.5995941,21.0082305 7.77417269,21.0082305 L7.77417269,21.0082305 L12.7945238,21.0082305 L17.812898,20.9814815 C17.9865642,20.9805185 18.1376223,20.8554403 18.1797969,20.6775597 L18.1797969,20.6775597 L19.0161926,17.1466955 C19.0255704,17.106893 19.0283077,17.066823 19.0262294,17.0274486 C19.3364561,16.911786 19.5597484,16.6000535 19.5597484,16.2335391 C19.5597484,15.7689095 19.201619,15.3909465 18.7613707,15.3909465 C18.3211224,15.3909465 17.962993,15.7689095 17.962993,16.2335391 C17.962993,16.4984074 18.0796322,16.7347613 18.2612568,16.8893704 L18.2612568,16.8893704 L17.2074996,18.0014856 C16.9393967,18.2844897 16.5828387,18.4403292 16.2036727,18.4403292 C15.7581526,18.4403292 15.3330608,18.2154774 15.066428,17.8388519 L15.066428,17.8388519 L13.3579504,15.4256667 C13.3574942,15.4249712 13.3569366,15.4244362 13.3564803,15.4237942 C13.4934972,15.2724486 13.5782519,15.0679259 13.5782519,14.8425926 C13.5782519,14.377963 13.2201225,14 12.7798742,14 Z M22.6,6.80722892 L22.6,9.21084337 L3.4,9.21084337 L3.4,6.80722892 L22.6,6.80722892 Z M20.2,2 L20.2,4.40361446 L5.8,4.40361446 L5.8,2 L20.2,2 Z" id="Combined-Shape" fill="url(#linearGradient-1)" fill-rule="nonzero"></path>
                    <polygon id="Path" points="0 0 26 0 26 26 0 26"></polygon>
                </g>
            </g>
        </g>
    </g>
</svg>

<svg xmlns="http://www.w3.org/2000/svg" width="25" height="24" viewBox="0 0 25 24">
    <defs>
        <linearGradient id="a" x1="50%" x2="50%" y1="17.381%" y2="151.163%">
            <stop offset="0%" stop-color="#C768E0"/>
            <stop offset="100%" stop-color="#67006E"/>
        </linearGradient>
    </defs>
    <g fill="none" fill-rule="evenodd">
        <path fill="url(#a)" fill-rule="nonzero" d="M22.6 11.578c1.32 0 2.4 1.082 2.4 2.404v9.614A2.409 2.409 0 0 1 22.6 26H3.4C2.08 26 1 24.918 1 23.596v-9.614a2.409 2.409 0 0 1 2.4-2.404h19.2zm-4.882 10.286H7.884c-.21 0-.38.18-.38.401v.963c0 .222.17.402.38.402h9.834c.21 0 .38-.18.38-.402v-.963a.391.391 0 0 0-.38-.4zM12.78 14c-.44 0-.799.378-.799.843 0 .232.09.443.235.595l-1.721 2.407c-.267.373-.69.595-1.135.595-.376 0-.743-.161-1.008-.443l-1.047-1.113a.86.86 0 0 0 .292-.65c0-.465-.358-.843-.799-.843-.44 0-.798.378-.798.843a.84.84 0 0 0 .559.803c-.003.04 0 .082.01.123l.836 3.544a.385.385 0 0 0 .37.304h5.02l5.018-.027a.385.385 0 0 0 .367-.303l.836-3.531c.01-.04.012-.08.01-.12a.841.841 0 0 0 .534-.793c0-.465-.358-.843-.799-.843-.44 0-.798.378-.798.843a.86.86 0 0 0 .298.655l-1.054 1.112a1.374 1.374 0 0 1-1.003.44c-.446 0-.87-.226-1.138-.602l-1.708-2.413-.002-.002a.864.864 0 0 0 .222-.581c0-.465-.358-.843-.798-.843zm9.82-7.193v2.404H3.4V6.807h19.2zM20.2 2v2.404H5.8V2h14.4z" transform="translate(-.5 -2)"/>
        <path d="M-.5-2h26v26h-26z"/>
    </g>
</svg>
